Newaita-dark/.DP/24/youtube-indicator-light-sync3.svg

<svg xmlns="http://www.w3.org/2000/svg" xmlns:xlink="http://www.w3.org/1999/xlink" width="24px" height="24px" viewBox="0 0 24 24" version="1.1">
<g id="surface1">
<path style=" stroke:none;fill-rule:nonzero;fill:rgb(93.333334%,93.333334%,93.333334%);fill-opacity:1;" d="M 16.835938 14.417969 C 16.679688 14.417969 16.519531 14.476562 16.398438 14.601562 C 16.367188 14.632812 16.339844 14.664062 16.320312 14.695312 C 15.742188 15.316406 15.390625 16.148438 15.390625 17.054688 C 15.390625 17.96875 15.742188 18.796875 16.320312 19.414062 C 16.339844 19.449219 16.367188 19.484375 16.398438 19.511719 C 16.640625 19.757812 17.03125 19.757812 17.273438 19.511719 C 17.515625 19.269531 17.515625 18.875 17.273438 18.632812 C 17.246094 18.605469 17.210938 18.578125 17.179688 18.554688 C 16.828125 18.164062 16.613281 17.640625 16.613281 17.054688 C 16.613281 16.476562 16.828125 15.949219 17.179688 15.554688 C 17.210938 15.53125 17.246094 15.507812 17.273438 15.476562 C 17.515625 15.234375 17.515625 14.84375 17.273438 14.601562 C 17.152344 14.476562 16.992188 14.417969 16.835938 14.417969 Z M 16.835938 14.417969 "/>
<path style=" stroke:none;fill-rule:nonzero;fill:rgb(93.333334%,93.333334%,93.333334%);fill-opacity:1;" d="M 20.871094 19.695312 C 21.03125 19.695312 21.1875 19.632812 21.308594 19.511719 C 21.339844 19.484375 21.367188 19.449219 21.390625 19.414062 C 21.964844 18.796875 22.320312 17.96875 22.320312 17.054688 C 22.320312 16.148438 21.964844 15.316406 21.390625 14.695312 C 21.367188 14.664062 21.339844 14.632812 21.308594 14.601562 C 21.066406 14.359375 20.671875 14.359375 20.429688 14.601562 C 20.1875 14.84375 20.1875 15.234375 20.429688 15.476562 C 20.460938 15.507812 20.492188 15.53125 20.523438 15.554688 C 20.882812 15.949219 21.09375 16.476562 21.09375 17.054688 C 21.09375 17.640625 20.882812 18.164062 20.523438 18.558594 C 20.492188 18.578125 20.460938 18.605469 20.429688 18.632812 C 20.1875 18.875 20.1875 19.269531 20.429688 19.511719 C 20.554688 19.632812 20.710938 19.695312 20.871094 19.695312 Z M 20.871094 19.695312 "/>
<path style=" stroke:none;fill-rule:nonzero;fill:rgb(93.333334%,93.333334%,93.333334%);fill-opacity:1;" d="M 11.878906 4.363281 C 11.878906 4.363281 5.382812 4.363281 3.757812 4.789062 C 2.882812 5.03125 2.167969 5.75 1.929688 6.636719 C 1.5 8.261719 1.5 11.632812 1.5 11.632812 C 1.5 11.632812 1.5 15.015625 1.929688 16.625 C 2.167969 17.511719 2.867188 18.210938 3.757812 18.453125 C 5.398438 18.898438 11.878906 18.898438 11.878906 18.898438 C 11.878906 18.898438 13.488281 18.898438 15.304688 18.84375 C 15.039062 18.304688 14.882812 17.703125 14.882812 17.054688 C 14.882812 14.859375 16.65625 13.085938 18.851562 13.085938 C 20.210938 13.085938 21.398438 13.757812 22.117188 14.789062 C 22.257812 13.257812 22.257812 11.648438 22.257812 11.648438 C 22.257812 11.648438 22.273438 8.261719 21.828125 6.636719 C 21.59375 5.75 20.890625 5.046875 20 4.808594 C 18.375 4.363281 11.878906 4.363281 11.878906 4.363281 Z M 9.898438 7.828125 C 9.90625 7.828125 9.914062 7.828125 9.921875 7.828125 C 10.007812 7.832031 10.085938 7.855469 10.160156 7.898438 L 15.6875 11.164062 C 16.015625 11.359375 16.015625 11.832031 15.6875 12.023438 L 10.160156 15.289062 C 9.828125 15.488281 9.40625 15.25 9.40625 14.859375 L 9.40625 8.328125 C 9.40625 8.054688 9.625 7.835938 9.898438 7.828125 Z M 9.898438 7.828125 "/>
</g>
</svg>

<svg xmlns="http://www.w3.org/2000/svg" width="24" height="24"><g fill="#bdbdbd"><path d="M16.836 14.418a.616.616 0 0 0-.438.184.64.64 0 0 0-.082.097 3.458 3.458 0 0 0 0 4.715.618.618 0 1 0 .957-.777.357.357 0 0 0-.093-.078 2.252 2.252 0 0 1-.567-1.504c0-.578.215-1.106.567-1.5a.618.618 0 0 0 .094-.953.616.616 0 0 0-.438-.184zm0 0M20.871 19.695a.622.622 0 0 0 .516-.28 3.445 3.445 0 0 0 0-4.716.618.618 0 0 0-.953-.098.61.61 0 0 0 0 .876.453.453 0 0 0 .093.078c.352.394.567.922.567 1.5 0 .582-.215 1.11-.567 1.504a.357.357 0 0 0-.093.078.61.61 0 0 0 0 .875.616.616 0 0 0 .437.183zm0 0"/><path d="M11.879 4.363s-6.496 0-8.121.426c-.871.242-1.59.961-1.832 1.848C1.5 8.262 1.5 11.629 1.5 11.629s0 3.387.426 4.992c.242.89.941 1.594 1.832 1.832 1.64.445 8.12.445 8.12.445s1.61 0 3.427-.054a3.97 3.97 0 0 1-.422-1.79c0-2.199 1.773-3.968 3.969-3.968a3.96 3.96 0 0 1 3.265 1.703c.14-1.531.14-3.14.14-3.14s.016-3.387-.425-5.012A2.607 2.607 0 0 0 20 4.809c-1.625-.446-8.121-.446-8.121-.446zm-1.98 3.465h.023a.499.499 0 0 1 .238.07l5.527 3.266a.498.498 0 0 1 0 .86l-5.527 3.269a.502.502 0 0 1-.754-.434V8.33c0-.274.219-.493.492-.5zm0 0"/></g></svg>
